src/images/apple.svg

<svg fill="none" height="89" viewBox="0 0 245 89" width="245" xmlns="http://www.w3.org/2000/svg"><path d="m93.688 39.096c1.648 0 3.12-.56 4.112-1.648l-.752-.752c-.912.944-2.032 1.344-3.312 1.344-2.704 0-4.736-1.984-4.736-4.64s2.032-4.64 4.736-4.64c1.28 0 2.4.4 3.312 1.328l.752-.752c-.992-1.088-2.464-1.632-4.096-1.632-3.376 0-5.872 2.416-5.872 5.696s2.496 5.696 5.856 5.696zm9.461-.016c2.464 0 4.272-1.792 4.272-4.288s-1.808-4.272-4.272-4.272-4.288 1.776-4.288 4.272 1.824 4.288 4.288 4.288zm0-1.008c-1.792 0-3.136-1.312-3.136-3.28s1.344-3.28 3.136-3.28 3.12 1.312 3.12 3.28-1.328 3.28-3.12 3.28zm17.087-7.552c-1.52 0-2.72.688-3.328 1.776-.512-1.184-1.6-1.776-2.992-1.776-1.408 0-2.496.592-3.088 1.6v-1.536h-1.088v8.416h1.136v-4.416c0-1.92 1.104-3.04 2.816-3.04 1.536 0 2.432.912 2.432 2.688v4.768h1.136v-4.416c0-1.92 1.088-3.04 2.816-3.04 1.52 0 2.416.912 2.416 2.688v4.768h1.136v-4.88c0-2.416-1.344-3.6-3.392-3.6zm7.049-1.776c.48 0 .832-.368.832-.832 0-.432-.368-.784-.832-.784s-.832.368-.832.8c0 .448.368.816.832.816zm-.576 10.256h1.136v-8.416h-1.136zm8.585-8.48c-1.456 0-2.592.592-3.2 1.616v-1.552h-1.088v8.416h1.136v-4.416c0-1.92 1.136-3.04 2.944-3.04 1.6 0 2.528.912 2.528 2.688v4.768h1.136v-4.88c0-2.416-1.408-3.6-3.456-3.6zm13.275.064v1.616c-.704-1.104-1.92-1.68-3.328-1.68-2.4 0-4.224 1.648-4.224 4.064s1.824 4.096 4.224 4.096c1.376 0 2.576-.56 3.28-1.632v1.072c0 2.08-.976 3.056-3.104 3.056-1.296 0-2.512-.432-3.312-1.152l-.576.864c.88.832 2.384 1.296 3.92 1.296 2.784 0 4.208-1.312 4.208-4.208v-7.392zm-3.216 7.088c-1.856 0-3.184-1.264-3.184-3.088s1.328-3.072 3.184-3.072 3.2 1.248 3.2 3.072-1.344 3.088-3.2 3.088zm13.925 1.408c2.192 0 3.472-.944 3.472-2.4 0-3.232-5.456-1.52-5.456-3.792 0-.8.672-1.392 2.192-1.392.864 0 1.744.208 2.48.72l.496-.912c-.704-.48-1.888-.784-2.976-.784-2.144 0-3.328 1.024-3.328 2.4 0 3.328 5.456 1.6 5.456 3.792 0 .832-.656 1.376-2.256 1.376-1.184 0-2.32-.416-2.992-.944l-.512.896c.688.592 2.032 1.04 3.424 1.04zm9.012 0c2.464 0 4.272-1.792 4.272-4.288s-1.808-4.272-4.272-4.272-4.288 1.776-4.288 4.272 1.824 4.288 4.288 4.288zm0-1.008c-1.792 0-3.136-1.312-3.136-3.28s1.344-3.28 3.136-3.28 3.12 1.312 3.12 3.28-1.328 3.28-3.12 3.28zm10.031 1.008c2.464 0 4.272-1.792 4.272-4.288s-1.808-4.272-4.272-4.272-4.288 1.776-4.288 4.272 1.824 4.288 4.288 4.288zm0-1.008c-1.792 0-3.136-1.312-3.136-3.28s1.344-3.28 3.136-3.28 3.12 1.312 3.12 3.28-1.328 3.28-3.12 3.28zm10.879-7.552c-1.456 0-2.592.592-3.2 1.616v-1.552h-1.088v8.416h1.136v-4.416c0-1.92 1.136-3.04 2.944-3.04 1.6 0 2.528.912 2.528 2.688v4.768h1.136v-4.88c0-2.416-1.408-3.6-3.456-3.6zm-90.08 29.48h3.4l-6.26-14h-3.2l-6.24 14h3.32l1.24-3h6.5zm-6.7-5.46 2.22-5.36 2.22 5.36zm17.693-5.46c-1.44 0-2.6.46-3.38 1.4v-1.24h-2.98v14.64h3.12v-5.02c.8.88 1.9 1.3 3.24 1.3 3.02 0 5.36-2.16 5.36-5.54s-2.34-5.54-5.36-5.54zm-.54 8.52c-1.56 0-2.74-1.12-2.74-2.98s1.18-2.98 2.74-2.98 2.739 1.12 2.739 2.98-1.179 2.98-2.739 2.98zm14.348-8.52c-1.44 0-2.6.46-3.38 1.4v-1.24h-2.98v14.64h3.12v-5.02c.8.88 1.9 1.3 3.24 1.3 3.02 0 5.36-2.16 5.36-5.54s-2.34-5.54-5.36-5.54zm-.54 8.52c-1.56 0-2.74-1.12-2.74-2.98s1.18-2.98 2.74-2.98 2.74 1.12 2.74 2.98-1.18 2.98-2.74 2.98zm18.473 2.64c4 0 5.94-2 5.94-4.34 0-5.14-8.14-3.36-8.14-5.94 0-.88.74-1.6 2.66-1.6 1.24 0 2.58.36 3.88 1.1l1-2.46c-1.3-.82-3.1-1.24-4.86-1.24-3.98 0-5.9 1.98-5.9 4.36 0 5.2 8.14 3.4 8.14 6.02 0 .86-.78 1.5-2.7 1.5-1.68 0-3.44-.6-4.62-1.46l-1.1 2.44c1.24.96 3.48 1.62 5.7 1.62zm14.034-2.96c-.34.26-.8.4-1.26.4-.84 0-1.34-.5-1.34-1.42v-4.38h2.68v-2.4h-2.68v-2.62h-3.12v2.62h-1.66v2.4h1.66v4.42c0 2.56 1.48 3.86 4.02 3.86.96 0 1.9-.22 2.54-.68zm7.379 2.88c3.42 0 5.9-2.3 5.9-5.54s-2.48-5.54-5.9-5.54-5.92 2.3-5.92 5.54 2.5 5.54 5.92 5.54zm0-2.56c-1.56 0-2.76-1.12-2.76-2.98s1.2-2.98 2.76-2.98 2.74 1.12 2.74 2.98-1.18 2.98-2.74 2.98zm10.966-6.94v-1.42h-2.98v10.76h3.12v-5.08c0-2.06 1.14-3 2.86-3 .24 0 .44.02.7.04v-2.88c-1.66 0-2.94.54-3.7 1.58zm15.997 4c0-3.46-2.44-5.58-5.6-5.58-3.28 0-5.74 2.32-5.74 5.54 0 3.2 2.42 5.54 6.14 5.54 1.94 0 3.44-.6 4.44-1.74l-1.66-1.8c-.74.7-1.56 1.04-2.7 1.04-1.64 0-2.78-.82-3.08-2.16h8.14c.02-.26.06-.6.06-.84zm-5.58-3.22c1.4 0 2.42.88 2.64 2.24h-5.3c.22-1.38 1.24-2.24 2.66-2.24z" fill="#fff"/><path d="m63.0551 45.1257c.0163-1.3777.3901-2.7288 1.0865-3.9268.6963-1.198 1.6925-2.2038 2.8951-2.9231-.7644-1.0635-1.7707-1.9394-2.94-2.559-1.1692-.6196-2.4694-.9659-3.7987-1.0119-2.8695-.2842-5.5991 1.6505-7.053 1.6505-1.4548 0-3.7009-1.6087-6.0808-1.5644-1.5618.0425-3.0856.4806-4.422 1.2716-1.3364.7909-2.4396 1.9075-3.2015 3.2404-3.2467 5.5083-.8287 13.6687 2.3352 18.1382 1.5483 2.185 3.3938 4.6461 5.8172 4.5564 2.3353-.0896 3.2168-1.4738 6.0364-1.4738 2.8204 0 3.6136 1.4738 6.0806 1.4293 2.5108-.0452 4.1044-2.2301 5.6401-4.4233 1.0992-1.5771 1.9581-3.3017 2.5498-5.1201-1.4619-.61-2.7091-1.6248-3.5878-2.9191-.8787-1.2944-1.3504-2.8117-1.3571-4.3649zm-4.6365-13.3778c1.3905-1.5935 2.0794-3.6598 1.9164-5.7479-2.0993.199-4.0412 1.1752-5.4274 2.7285-.6917.7524-1.2212 1.6333-1.557 2.59s-.471 1.9696-.3976 2.9785c1.0503.0142 2.0897-.2084 3.0376-.6505s1.7788-1.0918 2.428-1.8986z" fill="#fff"/><rect height="87" rx="15" stroke="#fff" stroke-width="2" width="243" x="1" y="1"/></svg>

<svg width="245" height="89" viewBox="0 0 245 89" fill="none" xmlns="http://www.w3.org/2000/svg">
<path d="M93.688 39.096C95.336 39.096 96.808 38.536 97.8 37.448L97.048 36.696C96.136 37.64 95.016 38.04 93.736 38.04C91.032 38.04 89 36.056 89 33.4C89 30.744 91.032 28.76 93.736 28.76C95.016 28.76 96.136 29.16 97.048 30.088L97.8 29.336C96.808 28.248 95.336 27.704 93.704 27.704C90.328 27.704 87.832 30.12 87.832 33.4C87.832 36.68 90.328 39.096 93.688 39.096ZM103.149 39.08C105.613 39.08 107.421 37.288 107.421 34.792C107.421 32.296 105.613 30.52 103.149 30.52C100.685 30.52 98.861 32.296 98.861 34.792C98.861 37.288 100.685 39.08 103.149 39.08ZM103.149 38.072C101.357 38.072 100.013 36.76 100.013 34.792C100.013 32.824 101.357 31.512 103.149 31.512C104.941 31.512 106.269 32.824 106.269 34.792C106.269 36.76 104.941 38.072 103.149 38.072ZM120.236 30.52C118.716 30.52 117.516 31.208 116.908 32.296C116.396 31.112 115.308 30.52 113.916 30.52C112.508 30.52 111.42 31.112 110.828 32.12V30.584H109.74V39H110.876V34.584C110.876 32.664 111.98 31.544 113.692 31.544C115.228 31.544 116.124 32.456 116.124 34.232V39H117.26V34.584C117.26 32.664 118.348 31.544 120.076 31.544C121.596 31.544 122.492 32.456 122.492 34.232V39H123.628V34.12C123.628 31.704 122.284 30.52 120.236 30.52ZM127.285 28.744C127.765 28.744 128.117 28.376 128.117 27.912C128.117 27.48 127.749 27.128 127.285 27.128C126.821 27.128 126.453 27.496 126.453 27.928C126.453 28.376 126.821 28.744 127.285 28.744ZM126.709 39H127.845V30.584H126.709V39ZM135.294 30.52C133.838 30.52 132.702 31.112 132.094 32.136V30.584H131.006V39H132.142V34.584C132.142 32.664 133.278 31.544 135.086 31.544C136.686 31.544 137.614 32.456 137.614 34.232V39H138.75V34.12C138.75 31.704 137.342 30.52 135.294 30.52ZM148.569 30.584V32.2C147.865 31.096 146.649 30.52 145.241 30.52C142.841 30.52 141.017 32.168 141.017 34.584C141.017 37 142.841 38.68 145.241 38.68C146.617 38.68 147.817 38.12 148.521 37.048V38.12C148.521 40.2 147.545 41.176 145.417 41.176C144.121 41.176 142.905 40.744 142.105 40.024L141.529 40.888C142.409 41.72 143.913 42.184 145.449 42.184C148.233 42.184 149.657 40.872 149.657 37.976V30.584H148.569ZM145.353 37.672C143.497 37.672 142.169 36.408 142.169 34.584C142.169 32.76 143.497 31.512 145.353 31.512C147.209 31.512 148.553 32.76 148.553 34.584C148.553 36.408 147.209 37.672 145.353 37.672ZM159.278 39.08C161.47 39.08 162.75 38.136 162.75 36.68C162.75 33.448 157.294 35.16 157.294 32.888C157.294 32.088 157.966 31.496 159.486 31.496C160.35 31.496 161.23 31.704 161.966 32.216L162.462 31.304C161.758 30.824 160.574 30.52 159.486 30.52C157.342 30.52 156.158 31.544 156.158 32.92C156.158 36.248 161.614 34.52 161.614 36.712C161.614 37.544 160.958 38.088 159.358 38.088C158.174 38.088 157.038 37.672 156.366 37.144L155.854 38.04C156.542 38.632 157.886 39.08 159.278 39.08ZM168.29 39.08C170.754 39.08 172.562 37.288 172.562 34.792C172.562 32.296 170.754 30.52 168.29 30.52C165.826 30.52 164.002 32.296 164.002 34.792C164.002 37.288 165.826 39.08 168.29 39.08ZM168.29 38.072C166.498 38.072 165.154 36.76 165.154 34.792C165.154 32.824 166.498 31.512 168.29 31.512C170.082 31.512 171.41 32.824 171.41 34.792C171.41 36.76 170.082 38.072 168.29 38.072ZM178.321 39.08C180.785 39.08 182.593 37.288 182.593 34.792C182.593 32.296 180.785 30.52 178.321 30.52C175.857 30.52 174.033 32.296 174.033 34.792C174.033 37.288 175.857 39.08 178.321 39.08ZM178.321 38.072C176.529 38.072 175.185 36.76 175.185 34.792C175.185 32.824 176.529 31.512 178.321 31.512C180.113 31.512 181.441 32.824 181.441 34.792C181.441 36.76 180.113 38.072 178.321 38.072ZM189.2 30.52C187.744 30.52 186.608 31.112 186 32.136V30.584H184.912V39H186.048V34.584C186.048 32.664 187.184 31.544 188.992 31.544C190.592 31.544 191.52 32.456 191.52 34.232V39H192.656V34.12C192.656 31.704 191.248 30.52 189.2 30.52ZM99.12 60H102.52L96.26 46H93.06L86.82 60H90.14L91.38 57H97.88L99.12 60ZM92.42 54.54L94.64 49.18L96.86 54.54H92.42ZM110.113 49.08C108.673 49.08 107.513 49.54 106.733 50.48V49.24H103.753V63.88H106.873V58.86C107.673 59.74 108.773 60.16 110.113 60.16C113.133 60.16 115.473 58 115.473 54.62C115.473 51.24 113.133 49.08 110.113 49.08ZM109.573 57.6C108.013 57.6 106.833 56.48 106.833 54.62C106.833 52.76 108.013 51.64 109.573 51.64C111.133 51.64 112.312 52.76 112.312 54.62C112.312 56.48 111.133 57.6 109.573 57.6ZM123.921 49.08C122.481 49.08 121.321 49.54 120.541 50.48V49.24H117.561V63.88H120.681V58.86C121.481 59.74 122.581 60.16 123.921 60.16C126.941 60.16 129.281 58 129.281 54.62C129.281 51.24 126.941 49.08 123.921 49.08ZM123.381 57.6C121.821 57.6 120.641 56.48 120.641 54.62C120.641 52.76 121.821 51.64 123.381 51.64C124.941 51.64 126.121 52.76 126.121 54.62C126.121 56.48 124.941 57.6 123.381 57.6ZM141.854 60.24C145.854 60.24 147.794 58.24 147.794 55.9C147.794 50.76 139.654 52.54 139.654 49.96C139.654 49.08 140.394 48.36 142.314 48.36C143.554 48.36 144.894 48.72 146.194 49.46L147.194 47C145.894 46.18 144.094 45.76 142.334 45.76C138.354 45.76 136.434 47.74 136.434 50.12C136.434 55.32 144.574 53.52 144.574 56.14C144.574 57 143.794 57.64 141.874 57.64C140.194 57.64 138.434 57.04 137.254 56.18L136.154 58.62C137.394 59.58 139.634 60.24 141.854 60.24ZM155.888 57.28C155.548 57.54 155.088 57.68 154.628 57.68C153.788 57.68 153.288 57.18 153.288 56.26V51.88H155.968V49.48H153.288V46.86H150.168V49.48H148.508V51.88H150.168V56.3C150.168 58.86 151.648 60.16 154.188 60.16C155.148 60.16 156.088 59.94 156.728 59.48L155.888 57.28ZM163.267 60.16C166.687 60.16 169.167 57.86 169.167 54.62C169.167 51.38 166.687 49.08 163.267 49.08C159.847 49.08 157.347 51.38 157.347 54.62C157.347 57.86 159.847 60.16 163.267 60.16ZM163.267 57.6C161.707 57.6 160.507 56.48 160.507 54.62C160.507 52.76 161.707 51.64 163.267 51.64C164.827 51.64 166.007 52.76 166.007 54.62C166.007 56.48 164.827 57.6 163.267 57.6ZM174.233 50.66V49.24H171.253V60H174.373V54.92C174.373 52.86 175.513 51.92 177.233 51.92C177.473 51.92 177.673 51.94 177.933 51.96V49.08C176.273 49.08 174.993 49.62 174.233 50.66ZM190.23 54.66C190.23 51.2 187.79 49.08 184.63 49.08C181.35 49.08 178.89 51.4 178.89 54.62C178.89 57.82 181.31 60.16 185.03 60.16C186.97 60.16 188.47 59.56 189.47 58.42L187.81 56.62C187.07 57.32 186.25 57.66 185.11 57.66C183.47 57.66 182.33 56.84 182.03 55.5H190.17C190.19 55.24 190.23 54.9 190.23 54.66ZM184.65 51.44C186.05 51.44 187.07 52.32 187.29 53.68H181.99C182.21 52.3 183.23 51.44 184.65 51.44Z" fill="white"/>
<path d="M63.0551 45.1257C63.0714 43.748 63.4452 42.3969 64.1416 41.1989C64.8379 40.0009 65.8341 38.9951 67.0367 38.2758C66.2723 37.2123 65.266 36.3364 64.0967 35.7168C62.9275 35.0972 61.6273 34.7509 60.298 34.7049C57.4285 34.4207 54.6989 36.3554 53.245 36.3554C51.7902 36.3554 49.5441 34.7467 47.1642 34.791C45.6024 34.8335 44.0786 35.2716 42.7422 36.0626C41.4058 36.8535 40.3026 37.9701 39.5407 39.303C36.294 44.8113 38.712 52.9717 41.8759 57.4412C43.4242 59.6262 45.2697 62.0873 47.6931 61.9976C50.0284 61.908 50.9099 60.5238 53.7295 60.5238C56.5499 60.5238 57.3431 61.9976 59.8101 61.9531C62.3209 61.9079 63.9145 59.723 65.4502 57.5298C66.5494 55.9527 67.4083 54.2281 68 52.4097C66.5381 51.7997 65.2909 50.7849 64.4122 49.4906C63.5335 48.1962 63.0618 46.6789 63.0551 45.1257ZM58.4186 31.7479C59.8091 30.1544 60.498 28.0881 60.335 26C58.2357 26.199 56.2938 27.1752 54.9076 28.7285C54.2159 29.4809 53.6864 30.3618 53.3506 31.3185C53.0148 32.2752 52.8796 33.2881 52.953 34.297C54.0033 34.3112 55.0427 34.0886 55.9906 33.6465C56.9385 33.2044 57.7694 32.5547 58.4186 31.7479Z" fill="white"/>
<rect x="1" y="1" width="243" height="87" rx="15" stroke="white" stroke-width="2"/>
</svg>
